X: 062
Q: "slow"
M: C
L: 1/8
K: G
V: 1
|: TB>A |\
g>a (b/a/b) B2 (c/B/TA/G/) | AB {e}d(c/B/) A2B>d | Te2d>c d(BTAG) | (D>E)(G>A) G2 :|
V: 2 clef=bass middle=d
z2 |\
|: z2 |\
g2g>a "6"b>ag>c' | "6"b2zg dd'"6"bg | c2z"6"^c "6"^dBe"6"a | "6;4"b2"5;#"B2 ee'd'c' | "6"b2z"6"d
b2zG | "6"c2G2 d2G2 | c>c'"6"b>a "6"b2 "6"c'2 | "6;4"d'2"5;3"d2 g2 :|

